X:219
T: My Lodging is Uncertain
N: O'Farrell's Pocket Companion v.3 (Sky ed. p.108)
N: "Irish"
% No tempo indicated in original - Q:60 makes it more of a slow air but I'm not % sure what O'Farrell
N: had in mind
M: C
L: 1/8
Q: 60
K: Em
B| e>f g/f/e/d/ cB BA/G/| A>GAB d3B| ef g/f/e/d/ cBAG|
A>G EE E3 :|
B| A>G EE cB BA/G/| A>GAB d3B| e>f g/f/e/d/ cBAG| A>G EE E3 :|
